logos/akamai.svg

<?xml version="1.0" encoding="UTF-8" standalone="no"?>
<svg width="512px" height="209px" viewBox="0 0 512 209" version="1.1" xmlns="http://www.w3.org/2000/svg" xmlns:xlink="http://www.w3.org/1999/xlink" preserveAspectRatio="xMidYMid">
	<g>
		<path d="M156.165577,152.930719 L135.306318,152.930719 L153.376906,116.343355 L153.6,116.343355 L156.165577,152.930719 L156.165577,152.930719 Z M157.057952,169.551198 L158.284967,184.052288 L181.263617,184.052288 L173.566885,99.611329 L139.322004,99.611329 L96.1533769,184.052288 L119.578214,184.052288 L126.828758,169.551198 L157.057952,169.551198 L157.057952,169.551198 Z M213.389107,147.018736 L216.847059,147.018736 L233.355991,124.820915 L254.438344,124.820915 L231.682789,153.153813 L245.737691,183.829194 L223.205229,183.829194 L214.058388,159.95817 L210.823529,159.95817 L205.692375,183.829194 L186.171678,183.829194 L204.019172,99.7228758 L223.428322,99.7228758 L213.389107,147.018736 Z M279.31329,159.511983 C285.67146,159.511983 289.91024,159.95817 288.683224,164.866231 C287.233115,171.224401 284.667538,172.116776 276.524619,172.116776 C273.512854,172.116776 268.047059,172.116776 269.497168,165.758606 C270.612636,160.404357 274.628322,159.511983 279.31329,159.511983 L279.31329,159.511983 Z M284.667538,183.829194 L303.853595,183.829194 L311.550327,147.018736 C316.0122,126.605664 307.980828,124.263181 288.348584,124.263181 C274.516776,124.263181 261.131155,124.040087 257.115468,142.556863 L276.301525,142.556863 C277.52854,137.202614 280.763399,136.198693 285.448366,136.198693 C293.925926,136.198693 293.702832,139.768192 292.252723,145.12244 L290.356427,154.492375 L289.464052,154.492375 C288.794771,147.688017 280.317211,147.911111 274.739869,147.911111 C260.684967,147.911111 252.430501,152.372985 249.418736,166.427887 C246.183878,181.48671 253.434423,184.721569 266.820044,184.721569 C273.624401,184.721569 282.548148,183.27146 285.783007,175.351634 L286.452288,175.351634 L284.667538,183.829194 L284.667538,183.829194 Z M343.118083,124.820915 L341.44488,133.298475 L342.114161,133.298475 C345.906754,126.271024 353.603486,124.374728 360.184749,124.374728 C368.662309,124.374728 376.805229,125.824837 375.68976,135.864052 L376.582135,135.864052 C379.370806,127.386492 388.07146,124.374728 395.545098,124.374728 C409.153813,124.374728 414.954248,129.95207 411.942484,143.560784 L403.24183,183.940741 L384.055773,183.940741 L391.306318,149.695861 C392.198693,143.337691 393.202614,138.875817 385.95207,138.875817 C378.701525,138.875817 375.912854,143.783878 374.685839,150.142048 L367.658388,183.717647 L348.472331,183.717647 L355.945969,148.022658 C356.838344,142.66841 357.396078,138.875817 350.591721,138.875817 C342.671895,138.875817 340.217865,143.114597 338.879303,150.142048 L331.851852,183.717647 L312.665795,183.717647 L325.382135,124.597821 L343.22963,124.597821 L343.22963,124.820915 L343.118083,124.820915 Z M442.283224,159.511983 C448.641394,159.511983 452.880174,159.95817 451.653159,164.866231 C450.426144,171.224401 447.637473,172.116776 439.494553,172.116776 C436.705882,172.116776 431.016993,172.116776 432.467102,165.758606 C433.582571,160.404357 437.375163,159.511983 442.283224,159.511983 L442.283224,159.511983 Z M447.414379,183.829194 L466.600436,183.829194 L474.297168,147.018736 C478.759041,126.605664 470.727669,124.263181 451.095425,124.263181 C437.263617,124.263181 423.877996,124.040087 419.862309,142.556863 L439.048366,142.556863 C440.275381,137.202614 443.51024,136.198693 448.195207,136.198693 C456.672767,136.198693 456.449673,139.768192 454.999564,145.12244 L453.103268,154.492375 L452.210893,154.492375 C451.541612,147.688017 443.064052,147.911111 437.48671,147.911111 C423.431808,147.911111 415.177342,152.372985 412.165577,166.427887 C408.930719,181.48671 416.181264,184.721569 429.566885,184.721569 C436.371242,184.721569 445.294989,183.27146 448.529847,175.351634 L449.199129,175.351634 L447.414379,183.829194 L447.414379,183.829194 Z M494.821786,183.829194 L475.63573,183.829194 L488.017429,124.709368 L507.203486,124.709368 L494.821786,183.829194 L494.821786,183.829194 Z M511.665359,108.646623 C511.665359,114.558606 506.757298,119.466667 500.845316,119.466667 C494.933333,119.466667 490.025272,114.558606 490.025272,108.646623 C490.025272,102.511547 494.933333,97.8265795 500.845316,97.8265795 C506.757298,97.8265795 511.665359,102.511547 511.665359,108.646623 L511.665359,108.646623 Z" fill="#F79838"></path>
		<path d="M106.192593,204.242266 C63.2470588,191.079739 32.1254902,151.48061 32.1254902,104.854031 C32.1254902,57.4466231 64.0278867,17.6244009 107.642702,4.68496732 C112.104575,3.45795207 110.87756,0.446187364 105.523312,0.446187364 C47.6305011,0.446187364 0.446187364,47.0727669 0.446187364,104.51939 C0.446187364,161.966013 47.2958606,208.592593 105.523312,208.592593 C110.87756,208.927233 111.100654,205.915468 106.192593,204.242266 L106.192593,204.242266 Z M52.0923747,128.948148 C51.869281,126.159477 51.6461874,123.370806 51.6461874,120.470588 C51.6461874,74.7363834 88.6797386,37.7028322 134.413943,37.7028322 C177.582571,37.7028322 190.745098,56.8888889 192.08366,55.7734205 C193.756863,54.3233115 176.355556,16.1742919 125.71329,16.1742919 C79.979085,16.1742919 42.9455338,53.2078431 42.9455338,98.9420479 C42.9455338,109.538998 45.0649237,119.578214 48.5228758,128.948148 C49.9729847,132.963834 52.3154684,132.963834 52.0923747,128.948148 Z M86.5603486,69.3821351 C107.865795,60.0122004 135.083224,59.7891068 161.631373,68.9359477 C179.478867,75.2941176 189.741176,83.9947712 190.745098,83.6601307 C192.195207,82.9908497 180.371242,64.4740741 159.065795,56.4427015 C133.298475,46.8496732 105.634858,51.7577342 85.4448802,67.7089325 C83.2139434,69.3821351 83.8832244,70.6091503 86.5603486,69.3821351 L86.5603486,69.3821351 Z" fill="#0098CC"></path>
	</g>
</svg>

<svg width="512" height="209" xmlns="http://www.w3.org/2000/svg" preserveAspectRatio="xMidYMid">
	<path d="M156.166 152.93h-20.86l18.07-36.587h.224l2.566 36.588Zm.892 16.621 1.227 14.501h22.979l-7.697-84.44h-34.245l-43.169 84.44h23.425l7.25-14.5h30.23Zm56.331-22.532h3.458l16.509-22.198h21.082l-22.755 28.333 14.055 30.675h-22.533l-9.147-23.87h-3.234l-5.132 23.87h-19.52l17.847-84.106h19.41l-10.04 47.296Zm65.924 12.493c6.358 0 10.597.446 9.37 5.354-1.45 6.358-4.015 7.25-12.158 7.25-3.012 0-8.478 0-7.028-6.357 1.116-5.355 5.131-6.247 9.816-6.247Zm5.355 24.317h19.186l7.696-36.81c4.462-20.413-3.57-22.756-23.201-22.756-13.832 0-27.218-.223-31.234 18.294h19.187c1.227-5.354 4.461-6.358 9.146-6.358 8.478 0 8.255 3.57 6.805 8.923l-1.897 9.37h-.892c-.67-6.804-9.147-6.58-14.724-6.58-14.055 0-22.31 4.461-25.321 18.516-3.235 15.059 4.015 18.294 17.401 18.294 6.804 0 15.728-1.45 18.963-9.37h.67l-1.785 8.477Zm58.45-59.008-1.673 8.477h.67c3.792-7.027 11.488-8.923 18.07-8.923 8.477 0 16.62 1.45 15.505 11.49h.892c2.789-8.479 11.49-11.49 18.963-11.49 13.609 0 19.41 5.577 16.397 19.186l-8.7 40.38h-19.186l7.25-34.245c.893-6.358 1.897-10.82-5.354-10.82-7.25 0-10.04 4.908-11.266 11.266l-7.028 33.576h-19.186l7.474-35.695c.892-5.355 1.45-9.147-5.354-9.147-7.92 0-10.374 4.239-11.713 11.266l-7.027 33.576h-19.186l12.716-59.12h17.848v.223h-.112Zm99.165 34.691c6.358 0 10.597.446 9.37 5.354-1.227 6.358-4.016 7.25-12.158 7.25-2.79 0-8.478 0-7.028-6.357 1.116-5.355 4.908-6.247 9.816-6.247Zm5.131 24.317H466.6l7.697-36.81c4.462-20.413-3.57-22.756-23.202-22.756-13.831 0-27.217-.223-31.233 18.294h19.186c1.227-5.354 4.462-6.358 9.147-6.358 8.478 0 8.255 3.57 6.805 8.923l-1.897 9.37h-.892c-.67-6.804-9.147-6.58-14.724-6.58-14.055 0-22.31 4.461-25.321 18.516-3.235 15.059 4.015 18.294 17.4 18.294 6.805 0 15.729-1.45 18.964-9.37h.67l-1.786 8.477Zm47.408 0h-19.186l12.381-59.12h19.186l-12.381 59.12Zm16.843-75.182c0 5.912-4.908 10.82-10.82 10.82s-10.82-4.908-10.82-10.82c0-6.135 4.908-10.82 10.82-10.82s10.82 4.685 10.82 10.82Z" fill="#F79838"/>
	<path d="M106.193 204.242c-42.946-13.162-74.068-52.761-74.068-99.388 0-47.407 31.903-87.23 75.518-100.169 4.462-1.227 3.235-4.239-2.12-4.239C47.631.446.446 47.073.446 104.52c0 57.447 46.85 104.074 105.077 104.074 5.355.334 5.578-2.678.67-4.35Zm-54.1-75.294c-.224-2.789-.447-5.577-.447-8.477 0-45.735 37.034-82.768 82.768-82.768 43.169 0 56.331 19.186 57.67 18.07 1.673-1.45-15.728-39.599-66.37-39.599-45.735 0-82.768 37.034-82.768 82.768 0 10.597 2.119 20.636 5.577 30.006 1.45 4.016 3.792 4.016 3.57 0ZM86.56 69.382c21.306-9.37 48.523-9.593 75.071-.446 17.848 6.358 28.11 15.059 29.114 14.724 1.45-.67-10.374-19.186-31.68-27.217-25.767-9.593-53.43-4.685-73.62 11.266-2.231 1.673-1.562 2.9 1.115 1.673Z" fill="#0098CC"/>
</svg>
